svg/celery.svg

<svg viewBox="0 0 20 20" xmlns="http://www.w3.org/2000/svg">
<rect width="100%" height="100%" fill="#B5DD64"/>
<path d="M5.98933 6.08144C6.45317 5.32186 7.01878 4.62915 7.67044 4.02256C8.71574 3.08206 9.9942 2.43842 11.3729 2.15856L11.9933 2.02364C12.5631 1.96888 13.138 2.00942 13.6944 2.14357C13.9672 2.24799 14.2137 2.41076 14.4167 2.62045C14.6198 2.83015 14.7744 3.08169 14.8697 3.35742C14.9651 3.63315 14.9989 3.92638 14.9687 4.21654C14.9385 4.50669 14.8451 4.78673 14.6951 5.03701C14.5122 5.34739 14.2499 5.60356 13.9351 5.77921C13.6203 5.95486 13.2644 6.04365 12.9039 6.03647C11.938 6.06218 11.0141 6.436 10.3025 7.08893C9.59102 7.74186 9.13999 8.62981 9.03268 9.58891C8.92538 10.548 9.16905 11.5135 9.71872 12.3072C10.2684 13.1009 11.0869 13.6692 12.0233 13.9072C12.3104 13.9929 12.6094 14.0317 12.9089 14.0222C13.1906 14.0095 13.4717 14.0565 13.7339 14.1599C13.9961 14.2634 14.2335 14.421 14.4305 14.6225C14.6275 14.8239 14.7796 15.0647 14.8769 15.329C14.9743 15.5932 15.0146 15.8751 14.9953 16.156C14.9571 16.6258 14.7538 17.067 14.4215 17.4017C14.0892 17.7364 13.6491 17.943 13.1791 17.985C12.8141 18.005 12.4483 18.005 12.0834 17.985C11.6381 17.8851 11.1828 17.8051 10.7425 17.6752C9.78083 17.399 8.88197 16.9391 8.09572 16.3209C7.27887 15.6809 6.58257 14.9008 6.03936 14.0172C5.34061 12.8018 4.98283 11.4207 5.00367 10.0193C4.97772 9.22982 5.08946 8.44182 5.33389 7.69057C5.47899 7.29079 5.6441 6.896 5.80421 6.50122C5.85424 6.3413 5.91428 6.21137 5.98933 6.08144V6.08144Z" fill="white"/>
</svg>

<svg xmlns="http://www.w3.org/2000/svg" viewBox="0 0 20 20">
  <rect width="100%" height="100%" fill="#B5DD64"/>
  <path fill="#fff" d="M5.99 6.08a9.77 9.77 0 0 1 1.68-2.06 7.88 7.88 0 0 1 3.7-1.86l.62-.14a5.15 5.15 0 0 1 1.7.12 2 2 0 0 1 .25 3.64c-.32.17-.68.26-1.04.26a4 4 0 0 0-.88 7.87c.29.08.59.12.89.11A2 2 0 0 1 15 16.16a2 2 0 0 1-1.82 1.82c-.37.02-.73.02-1.1 0-.44-.1-.9-.17-1.34-.3a7.74 7.74 0 0 1-2.64-1.36 8.74 8.74 0 0 1-2.06-2.3 7.79 7.79 0 0 1-1.04-4 6.8 6.8 0 0 1 .33-2.33L5.8 6.5c.05-.16.11-.29.19-.42Z"/>
</svg>
